X:75
T:Petit Doit. JJo8.075, Le
%%VWML:JohnsonVol8-2184-p38-0
F:http://www.vwml.org/record/JohnsonVol8/2184/p38
Z:Transcribed by Simon Furey and Lewis Jones
Z:vmp.Simon Wilson 2013 www.village-music-project.org.uk
Z:Dance added by John Chambers 2017
M:6/8
L:1/8
%Q:3/8=120
K:G
|:\
D2D G2G | ABc B2A |\
BdD G2G | ABc B2A :|\
|:\
B2c d2d | ABc B2A |
G2G F2F | E2E D2c |\
BdD G2G | ABc B2A |\
BdD G2G | cBA G3 :|
W: Foot it and cast off .|. foot it and
W:cast up again .|. Right hands across
W:at Top .||. Left hands across back
W:again :||: foot it across and not turn
W::||. Cross over half figure .||. Right
W:and Left at Top :||:
W:
T:Who Can Help it Now. JJo8.076
B:J.Johnson Choice Collection Vol 8 1758
Z:vmp.Simon Wilson 2013 www.village-music-project.org.uk
Z:Dance added by John Chambers 2017
M:2/4
L:1/8
%Q:1/2=90
K:G
|:\
G>AGe | dBAG | g>age | d2B2 |\
g>age | dBAG | ((3ABc) BA | G2E2 :|
|:\
gdBd | gdBG | g>ef>g | a2A2 |\
gdBd | gdBG | ((3ABc) BA | G2E2 :|
W: First and 2d Cu. foot it and change
W:Places .|. the same back again :||
W:Cross over half figure :||. Lead up
W:to the Top cast off :||: foot it
W:Corners and turn :||: Lead outsides
W:and foot it to your Partner.
W:
